X:1
T:Title
L:1/8
Q:1/4=140
M:4/4
K:D
V:1 treble nm="Church Organ, Staff"
V:1
 A2 d2 A2 B2 | FGAB AG F2 | E2 D2 d2 cB | AG F4 E2 | A2 A^G FG E2 | c2 cB AB ^G2 | E2 e2 AB c2 | %7
w: By~Edwin~Moss * * *|||||||
 B2 B4 A2 | A2 B2 c2 d2 | F2 G2 A2 B2 | E2 F2 G2 A2 | d2 e2- e/ z/ d d2 |] %12
w: |||||

